; generated by Slic3r 1.1.7 on 2016-10-04 at 09:22:37

; perimeters extrusion width = 0.40mm
; infill extrusion width = 0.67mm
; solid infill extrusion width = 0.50mm
; top infill extrusion width = 0.30mm

G21 ; set units to millimeters
M107
M190 S45 ; wait for bed temperature to be reached
M104 S220 ; set temperature
G28 ; home all axes
M109 S220 ; wait for temperature to be reached
G90 ; use absolute coordinates
G92 E0
M82 ; use absolute distances for extrusion
M204 S500
G1 F3600.000 E-3.00000
G1 Z0.550 F9000.000
G92 E0
G1 X92.185 Y75.558 F9000.000
G1 Z0.300 F9000.000
G1 E2.95000 F3600.000
G1 X93.558 Y74.185 E2.99163 F1800.000
G1 X97.400 Y70.909 E3.09986
G1 X101.710 Y68.279 E3.20810
G1 X107.871 Y65.924 E3.34952
G1 X109.747 Y65.422 E3.39114
G1 X112.440 Y64.824 E3.45028
G1 X118.940 Y63.674 E3.59180
G1 X123.966 Y63.190 E3.70004
G1 X129.337 Y63.555 E3.81545
G1 X136.837 Y64.705 E3.97811 F1800.000
G1 X140.254 Y65.422 E4.05296
G1 X142.129 Y65.924 E4.09457
G1 X146.887 Y67.611 E4.20281
G1 X151.320 Y70.028 E4.31104
G1 X156.442 Y74.185 E4.45246
G1 X157.815 Y75.558 E4.49409
G1 X161.091 Y79.400 E4.60232
G1 X163.721 Y83.710 E4.71056
G1 X166.076 Y89.871 E4.85198
G1 X166.578 Y91.747 E4.89360
G1 X167.494 Y96.712 E5.00184
G1 X167.616 Y101.759 E5.11007
G1 X166.578 Y108.253 E5.25106
G1 X166.076 Y110.129 E5.29268
G1 X164.389 Y114.887 E5.40092
G1 X161.972 Y119.320 E5.50916
G1 X157.815 Y124.442 E5.65057
G1 X156.442 Y125.815 E5.69220
G1 X152.600 Y129.091 E5.80044
G1 X148.290 Y131.721 E5.90868
G1 X142.129 Y134.076 E6.05009
G1 X140.254 Y134.578 E6.09170
G1 X136.837 Y135.295 E6.16655
G1 X129.337 Y136.445 E6.32921
G1 X124.302 Y136.814 E6.43745
G1 X118.940 Y136.326 E6.55286
G1 X112.440 Y135.176 E6.69438
G1 X109.747 Y134.578 E6.75352
G1 X107.871 Y134.076 E6.79514
G1 X103.113 Y132.389 E6.90338
G1 X98.680 Y129.972 E7.01162
G1 X93.558 Y125.815 E7.15303
G1 X92.185 Y124.442 E7.19466
G1 X88.909 Y120.600 E7.30290
G1 X86.279 Y116.290 E7.41114
G1 X83.924 Y110.129 E7.55255
G1 X83.422 Y108.254 E7.59416
G1 X82.506 Y103.289 E7.70240
G1 X82.384 Y98.241 E7.81064
G1 X83.422 Y91.746 E7.95164
G1 X83.924 Y89.871 E7.99326
G1 X85.611 Y85.113 E8.10149
G1 X88.028 Y80.680 E8.20973
G1 X92.147 Y75.605 E8.34986
G1 X92.524 Y75.897 F9000.000
G1 X93.897 Y74.524 E8.39149 F1800.000
G1 X97.711 Y71.274 E8.49891
G1 X101.993 Y68.672 E8.60633
G1 X107.995 Y66.386 E8.74402
G1 X109.870 Y65.884 E8.78564
G1 X112.523 Y65.295 E8.84389
G1 X119.024 Y64.145 E8.98541
G1 X124.012 Y63.668 E9.09283
G1 X129.264 Y64.028 E9.20570
G1 X136.764 Y65.178 E9.36837 F1800.000
G1 X140.130 Y65.884 E9.44209
G1 X142.005 Y66.386 E9.48370
G1 X146.727 Y68.063 E9.59113
G1 X151.122 Y70.470 E9.69855
G1 X156.103 Y74.524 E9.83623
G1 X157.476 Y75.897 E9.87786
G1 X160.726 Y79.711 E9.98528
G1 X163.328 Y83.993 E10.09270
G1 X165.614 Y89.995 E10.23039
G1 X166.116 Y91.870 E10.27201
G1 X167.022 Y96.799 E10.37943
G1 X167.134 Y101.808 E10.48685
G1 X166.116 Y108.130 E10.62411
G1 X165.614 Y110.005 E10.66574
G1 X163.937 Y114.727 E10.77316
G1 X161.530 Y119.122 E10.88058
G1 X157.476 Y124.103 E11.01826
G1 X156.103 Y125.476 E11.05989
G1 X152.289 Y128.726 E11.16731
G1 X148.007 Y131.328 E11.27473
G1 X142.005 Y133.614 E11.41242
G1 X140.130 Y134.116 E11.45403
G1 X136.764 Y134.822 E11.52775
G1 X129.264 Y135.972 E11.69042
G1 X124.267 Y136.335 E11.79784
G1 X119.024 Y135.855 E11.91071
G1 X112.523 Y134.705 E12.05223
G1 X109.870 Y134.116 E12.11049
G1 X107.995 Y133.614 E12.15211
G1 X103.273 Y131.937 E12.25953
G1 X98.878 Y129.530 E12.36695
G1 X93.897 Y125.476 E12.50464
G1 X92.524 Y124.103 E12.54626
G1 X89.274 Y120.289 E12.65368
G1 X86.672 Y116.007 E12.76111
G1 X84.386 Y110.005 E12.89879
G1 X83.884 Y108.130 E12.94040
G1 X82.978 Y103.202 E13.04782
G1 X82.866 Y98.192 E13.15525
G1 X83.884 Y91.870 E13.29253
G1 X84.386 Y89.995 E13.33414
G1 X86.063 Y85.273 E13.44156
G1 X88.470 Y80.878 E13.54898
G1 X92.486 Y75.943 E13.68538
G1 X92.862 Y76.235 F9000.000
G1 X94.235 Y74.862 E13.72701 F1800.000
G1 X98.022 Y71.640 E13.83361
G1 X102.276 Y69.065 E13.94021
G1 X108.119 Y66.848 E14.07417
G1 X109.994 Y66.346 E14.11579
G1 X112.607 Y65.766 E14.17316
G1 X119.107 Y64.616 E14.31468
G1 X124.057 Y64.146 E14.42128
G1 X129.192 Y64.501 E14.53162
G1 X136.692 Y65.651 E14.69428 F1800.000
G1 X140.006 Y66.346 E14.76688
G1 X141.881 Y66.848 E14.80850
G1 X146.566 Y68.516 E14.91510
G1 X150.923 Y70.912 E15.02170
G1 X155.765 Y74.862 E15.15566
G1 X157.138 Y76.235 E15.19729
G1 X160.360 Y80.022 E15.30389
G1 X162.935 Y84.276 E15.41049
G1 X165.152 Y90.119 E15.54445
G1 X165.654 Y91.994 E15.58607
G1 X166.550 Y96.885 E15.69267
G1 X166.651 Y101.857 E15.79927
G1 X165.654 Y108.006 E15.93282
G1 X165.152 Y109.881 E15.97445
G1 X163.484 Y114.566 E16.08105
G1 X161.088 Y118.923 E16.18765
G1 X157.138 Y123.765 E16.32161
G1 X155.765 Y125.138 E16.36324
G1 X151.978 Y128.360 E16.46984
G1 X147.724 Y130.935 E16.57644
G1 X141.881 Y133.152 E16.71040
G1 X140.006 Y133.654 E16.75201
G1 X136.692 Y134.349 E16.82461
G1 X129.192 Y135.499 E16.98728
G1 X124.232 Y135.856 E17.09388
G1 X119.107 Y135.384 E17.20422
G1 X112.607 Y134.234 E17.34574
G1 X109.994 Y133.654 E17.40311
G1 X108.119 Y133.152 E17.44473
G1 X103.434 Y131.484 E17.55133
G1 X99.077 Y129.088 E17.65793
G1 X94.235 Y125.138 E17.79189
G1 X92.862 Y123.765 E17.83352
G1 X89.640 Y119.978 E17.94012
G1 X87.065 Y115.724 E18.04672
G1 X84.848 Y109.881 E18.18068
G1 X84.346 Y108.006 E18.22230
G1 X83.450 Y103.115 E18.32890
G1 X83.349 Y98.144 E18.43550
G1 X84.346 Y91.994 E18.56906
G1 X84.848 Y90.119 E18.61067
G1 X86.516 Y85.434 E18.71727
G1 X88.912 Y81.077 E18.82387
G1 X92.824 Y76.282 E18.95655
G1 X93.200 Y76.573 F9000.000
G1 X94.573 Y75.200 E18.99818 F1800.000
G1 X98.333 Y72.005 E19.10395
G1 X102.559 Y69.459 E19.20972
G1 X108.242 Y67.310 E19.33998
G1 X110.118 Y66.808 E19.38160
G1 X112.690 Y66.238 E19.43809
G1 X119.190 Y65.088 E19.57960
G1 X124.102 Y64.624 E19.68537
G1 X129.119 Y64.974 E19.79319
G1 X136.619 Y66.124 E19.95585 F1800.000
G1 X139.882 Y66.808 E20.02733
G1 X141.757 Y67.310 E20.06894
G1 X146.405 Y68.968 E20.17472
G1 X150.723 Y71.354 E20.28049
G1 X155.427 Y75.200 E20.41075
G1 X156.800 Y76.573 E20.45237
G1 X159.995 Y80.333 E20.55814
G1 X162.541 Y84.559 E20.66392
G1 X164.690 Y90.242 E20.79417
G1 X165.192 Y92.118 E20.83579
G1 X166.078 Y96.971 E20.94156
G1 X166.169 Y101.904 E21.04734
G1 X165.192 Y107.882 E21.17719
G1 X164.690 Y109.758 E21.21881
G1 X163.032 Y114.405 E21.32458
G1 X160.646 Y118.723 E21.43035
G1 X156.800 Y123.427 E21.56061
G1 X155.427 Y124.800 E21.60223
G1 X151.667 Y127.995 E21.70801
G1 X147.441 Y130.541 E21.81378
G1 X141.757 Y132.690 E21.94404
G1 X139.882 Y133.192 E21.98565
G1 X136.619 Y133.876 E22.05713
G1 X129.119 Y135.026 E22.21979
G1 X124.198 Y135.377 E22.32556
G1 X119.190 Y134.912 E22.43338
G1 X112.690 Y133.762 E22.57489
G1 X110.118 Y133.192 E22.63138
G1 X108.242 Y132.690 E22.67300
G1 X103.595 Y131.032 E22.77877
G1 X99.277 Y128.646 E22.88454
G1 X94.573 Y124.800 E23.01480
G1 X93.200 Y123.427 E23.05643
G1 X90.005 Y119.667 E23.16220
G1 X87.459 Y115.441 E23.26797
G1 X85.310 Y109.757 E23.39823
G1 X84.808 Y107.882 E23.43984
G1 X83.922 Y103.029 E23.54561
G1 X83.831 Y98.096 E23.65138
G1 X84.808 Y92.118 E23.78125
G1 X85.310 Y90.243 E23.82286
G1 X86.968 Y85.595 E23.92863
G1 X89.354 Y81.277 E24.03440
G1 X93.162 Y76.620 E24.16338
G1 F3600.000 E21.16338
G1 Z0.550 F9000.000
G92 E0
G1 X118.165 Y102.045 F9000.000
G1 Z0.300 F9000.000
G1 E2.95000 F3600.000
G1 X115.760 Y101.264 E3.00420 F1800.000
G1 X115.760 Y98.736 E3.05839
G1 X118.165 Y97.955 E3.11259
G1 X119.651 Y100.000 E3.16679
G1 X118.200 Y101.997 E3.21970
G1 X117.982 Y101.483 F9000.000
G1 X116.239 Y100.916 E3.25899 F1800.000
G1 X116.239 Y99.084 E3.29828
G1 X117.982 Y98.517 E3.33757
G1 X119.059 Y100.000 E3.37686
G1 X118.017 Y101.434 E3.41486
G1 X117.819 Y101.848 F9000.000
G1 F3600.000 E0.41486
G1 Z0.550 F9000.000
G92 E0
G1 X130.260 Y101.264 F9000.000
G1 Z0.300 F9000.000
G1 E2.95000 F3600.000
G1 X130.260 Y98.736 E3.00420 F1800.000
G1 X132.665 Y97.955 E3.05839
G1 X134.151 Y100.000 E3.11259
G1 X132.665 Y102.045 E3.16679
G1 X130.317 Y101.283 E3.21970
G1 X130.739 Y100.916 F9000.000
G1 X130.739 Y99.084 E3.25899 F1800.000
G1 X132.482 Y98.517 E3.29828
G1 X133.559 Y100.000 E3.33757
G1 X132.482 Y101.483 E3.37686
G1 X130.796 Y100.935 E3.41486
G1 X130.341 Y100.875 F9000.000
G1 F3600.000 E0.41486
G1 Z0.550 F9000.000
G92 E0
G1 X131.082 Y103.154 F9000.000
G1 Z0.300 F9000.000
G1 E2.95000 F3600.000
G1 X124.508 Y104.162 E3.09257 F1800.000
G1 X118.158 Y103.038 E3.23082
G1 X116.502 Y102.595 E3.26757
G1 X115.481 Y101.573 E3.29854
G1 X115.427 Y101.580 E3.29969
G1 X115.405 Y101.498 E3.30152
G1 X115.345 Y101.438 E3.30335
G1 X115.376 Y101.388 E3.30461
G1 X115.004 Y100.000 E3.33540
G1 X115.376 Y98.612 E3.36620
G1 X115.345 Y98.562 E3.36746
G1 X115.405 Y98.502 E3.36928
G1 X115.427 Y98.420 E3.37111
G1 X115.481 Y98.427 E3.37226
G1 X116.502 Y97.405 E3.40323
G1 X118.158 Y96.962 E3.43998
G1 X124.139 Y95.904 E3.57020
G1 X124.508 Y95.838 E3.57824 F1800.000
G1 X131.850 Y96.964 E3.73747
G1 X133.498 Y97.405 E3.77404
G1 X134.595 Y98.502 E3.80729
G1 X134.996 Y100.000 E3.84053
G1 X134.595 Y101.498 E3.87378
G1 X133.498 Y102.595 E3.90703
G1 X131.850 Y103.036 E3.94360
G1 X131.141 Y103.145 E3.95898
G1 X131.154 Y103.627 F9000.000
G1 X124.503 Y104.647 E4.10324 F1800.000
G1 X118.054 Y103.506 E4.24363
G1 X116.254 Y103.024 E4.28357
G1 X114.976 Y101.746 E4.32233
G1 X114.509 Y100.000 E4.36107
G1 X114.976 Y98.254 E4.39981
G1 X116.254 Y96.976 E4.43856
G1 X118.054 Y96.494 E4.47850
G1 X124.503 Y95.353 E4.61890
G1 X131.400 Y96.411 E4.76848
G1 X131.949 Y96.495 E4.78038 F1800.000
G1 X133.746 Y96.976 E4.82027
G1 X135.024 Y98.254 E4.85902
G1 X135.491 Y100.000 E4.89776
G1 X135.024 Y101.746 E4.93650
G1 X133.746 Y103.024 E4.97525
G1 X131.949 Y103.505 E5.01513
G1 X131.214 Y103.618 E5.03107
G1 F3600.000 E2.03107
G1 Z0.550 F9000.000
G92 E0
G1 X131.730 Y96.636 F9000.000
G1 X132.385 Y97.446 F9000.000
G1 Z0.300 F9000.000
G1 E2.95000 F3600.000
G1 X132.428 Y97.488 E2.95129 F1800.000
G1 X132.055 Y97.809 E2.96182
G1 X131.485 Y97.239 E2.97910
G1 X131.533 Y97.979 E2.99499
G1 X130.667 Y97.113 E3.02123
G1 X129.849 Y96.988 E3.03898
G1 X131.010 Y98.149 E3.07417
G1 X130.487 Y98.319 E3.08596
G1 X129.031 Y96.862 E3.13010
G1 X128.212 Y96.737 E3.14785
G1 X129.964 Y98.489 E3.20096
G1 X129.933 Y99.151 E3.21517
G1 X127.394 Y96.612 E3.29216
G1 X126.576 Y96.486 E3.30991
G1 X129.933 Y99.844 E3.41171
G1 X129.933 Y100.537 E3.42656
G1 X125.757 Y96.361 E3.55317
G1 X124.939 Y96.235 E3.57092
G1 X131.468 Y102.764 E3.76885
G1 X132.043 Y102.646 E3.78143
G1 X131.363 Y101.966 E3.80205
G1 X130.867 Y102.856 E3.82389
G1 X124.231 Y96.220 E4.02509
G1 X123.642 Y96.324 E4.03791
G1 X130.266 Y102.948 E4.23874
G1 X129.665 Y103.040 E4.25177
G1 X123.053 Y96.428 E4.45224
G1 X122.464 Y96.532 E4.46506
G1 X129.065 Y103.132 E4.66517
G1 X128.464 Y103.224 E4.67820
G1 X121.876 Y96.636 E4.87794
G1 X121.287 Y96.740 E4.89075
G1 X127.863 Y103.317 E5.09013
G1 X127.263 Y103.409 E5.10316
G1 X120.698 Y96.844 E5.30217
G1 X120.110 Y96.949 E5.31499
G1 X126.662 Y103.501 E5.51363
G1 X126.061 Y103.593 E5.52666
G1 X119.521 Y97.053 E5.72495
G1 X118.932 Y97.157 E5.73776
G1 X125.460 Y103.685 E5.93568
G1 X124.860 Y103.777 E5.94871
G1 X118.344 Y97.261 E6.14626
G1 F3600.000 E3.14626
G1 Z0.550 F9000.000
G92 E0
G1 X119.164 Y98.775 F9000.000
G1 Z0.300 F9000.000
G1 E2.95000 F3600.000
G1 X124.157 Y103.768 E3.10138 F1800.000
G1 X123.315 Y103.619 E3.11970
G1 X119.904 Y100.207 E3.22313
G1 X119.613 Y100.608 E3.23376
G1 X122.474 Y103.470 E3.32051
G1 X121.632 Y103.321 E3.33883
G1 X119.321 Y101.010 E3.40889
G1 X119.029 Y101.411 E3.41953
G1 X120.790 Y103.172 E3.47291
G1 X119.948 Y103.023 E3.49123
G1 X118.738 Y101.812 E3.52793
G1 X118.446 Y102.214 E3.53857
G1 X119.107 Y102.874 E3.55859
G1 X118.265 Y102.725 E3.57691
G1 X118.224 Y102.684 E3.57815
G1 F3600.000 E0.57815
G1 Z0.550 F9000.000
G92 E0
G1 X132.919 Y97.498 F9000.000
G1 Z0.300 F9000.000
G1 E2.95000 F3600.000
G1 X134.047 Y98.818 E2.98258 F1800.000
G1 X134.442 Y99.646 E2.99979
G1 X134.442 Y100.354 F9000.000
G1 X134.047 Y101.182 E3.01699 F1800.000
G1 X132.919 Y102.502 E3.04957
G1 F3600.000 E0.04957
G1 Z0.550 F9000.000
G92 E0
G1 X117.943 Y102.481 F9000.000
G1 Z0.300 F9000.000
G1 E2.95000 F3600.000
G1 X116.769 Y102.133 E2.97299 F1800.000
G1 X116.462 Y101.945 E2.97974
G1 F3600.000 E-0.02026
G1 Z0.550 F9000.000
G92 E0
G1 X116.462 Y98.055 F9000.000
G1 Z0.300 F9000.000
G1 E2.95000 F3600.000
G1 X116.769 Y97.867 E2.95675 F1800.000
G1 X117.943 Y97.519 E2.97974
M104 S217 ; set temperature
M204 S1000
G1 F3600.000 E-0.02026
G1 Z0.750 F9000.000
G92 E0
G1 X119.492 Y100.000 F9000.000
G1 Z0.500 F9000.000
G1 E2.95000 F3600.000
M204 S1000
G1 X118.115 Y101.894 E2.97797 F1301.427
G1 X115.889 Y101.171 E3.00594
G1 X115.889 Y98.829 E3.03391
G1 X118.115 Y98.106 E3.06188
G1 X119.456 Y99.951 E3.08913
M204 S1000
G1 X118.997 Y100.000 F9000.000
M204 S1000
G1 X117.963 Y101.424 E3.11016 F867.618
G1 X116.289 Y100.880 E3.13119
G1 X116.289 Y99.120 E3.15221
G1 X117.963 Y98.576 E3.17324
G1 X118.962 Y99.951 E3.19355
M204 S1000
G1 X119.294 Y100.268 F9000.000
G1 F3600.000 E0.19355
G1 Z0.750 F9000.000
G92 E0
G1 X130.389 Y101.171 F9000.000
G1 Z0.500 F9000.000
G1 E2.95000 F3600.000
M204 S1000
G1 X130.389 Y98.829 E2.97797 F1301.427
G1 X132.615 Y98.106 E3.00594
G1 X133.992 Y100.000 E3.03391
G1 X132.615 Y101.894 E3.06188
G1 X130.446 Y101.189 E3.08913
M204 S1000
G1 X130.789 Y100.880 F9000.000
M204 S1000
G1 X130.789 Y99.120 E3.11016 F867.618
G1 X132.463 Y98.576 E3.13119
G1 X133.497 Y100.000 E3.15221
G1 X132.463 Y101.424 E3.17324
G1 X130.846 Y100.899 E3.19355
M204 S1000
G1 X130.391 Y100.838 F9000.000
G1 F3600.000 E0.19355
G1 Z0.750 F9000.000
G92 E0
G1 X131.156 Y103.272 F9000.000
G1 Z0.500 F9000.000
G1 E2.95000 F3600.000
M204 S1000
G1 X124.507 Y104.292 E3.03035 F1301.427
G1 X118.130 Y103.164 E3.10772
G1 X116.436 Y102.710 E3.12867
G1 X115.290 Y101.564 E3.14803
G1 X114.871 Y100.000 E3.16738
G1 X115.290 Y98.436 E3.18672
G1 X116.436 Y97.290 E3.20608
G1 X118.130 Y96.836 E3.22703
M204 S1000
M204 S1000
G1 X124.507 Y95.708 E3.30440 F1301.427
G1 X131.877 Y96.838 E3.39347
G1 X133.564 Y97.290 E3.41434
G1 X134.710 Y98.436 E3.43369
G1 X135.129 Y100.000 E3.45304
G1 X134.710 Y101.564 E3.47239
G1 X133.564 Y102.710 E3.49174
G1 X131.877 Y103.162 E3.51262
G1 X131.215 Y103.263 E3.52061
M204 S1000
G1 X131.216 Y103.668 F9000.000
M204 S1000
G1 X124.502 Y104.697 E3.60176 F867.618
G1 X118.043 Y103.555 E3.68012
G1 X116.229 Y103.069 E3.70256
G1 X114.931 Y101.771 E3.72448
G1 X114.457 Y100.000 E3.74639
G1 X114.931 Y98.229 E3.76829
G1 X116.229 Y96.931 E3.79021
G1 X118.043 Y96.445 E3.81265
G1 X124.502 Y95.303 E3.89101
G1 X131.959 Y96.446 E3.98113
M204 S1000
M204 S1000
G1 X133.771 Y96.931 E4.00355 F867.618
G1 X135.069 Y98.229 E4.02546
G1 X135.543 Y100.000 E4.04737
G1 X135.069 Y101.771 E4.06928
G1 X133.771 Y103.069 E4.09120
G1 X131.959 Y103.554 E4.11361
G1 X131.275 Y103.659 E4.12187
M204 S1000
G1 F3600.000 E1.12187
G1 Z0.750 F9000.000
G92 E0
G1 X132.265 Y96.703 F9000.000
G1 X134.432 Y101.360 F9000.000
G1 Z0.500 F9000.000
G1 E2.95000 F3600.000
M204 S1000
G1 X133.360 Y102.432 E2.97168 F1084.522
G1 X132.409 Y102.687 E2.98575
G1 X134.687 Y100.409 E3.03179
G1 X134.361 Y100.038 E3.03884
G1 X134.712 Y99.687 E3.04594
G1 X134.565 Y99.138 E3.05407
G1 X134.100 Y99.603 E3.06347
G1 X133.807 Y99.200 E3.07059
G1 X134.399 Y98.608 E3.08256
G1 X134.051 Y98.259 E3.08959
G1 X133.514 Y98.796 E3.10044
G1 X133.221 Y98.393 E3.10757
G1 X133.703 Y97.911 E3.11730
G1 X133.352 Y97.566 E3.12434
G1 X132.928 Y97.990 E3.13291
G1 X132.376 Y97.846 E3.14106
G1 X132.803 Y97.419 E3.14969
G1 X132.254 Y97.272 E3.15782
G1 X131.345 Y98.181 E3.17619
G1 X130.313 Y98.516 E3.19169
G1 X131.694 Y97.135 E3.21960
G1 X131.090 Y97.043 E3.22833
G1 X124.219 Y103.915 E3.36722
G1 X123.627 Y103.810 E3.37581
G1 X130.487 Y96.950 E3.51446
G1 X129.883 Y96.858 E3.52318
G1 X123.035 Y103.705 E3.66159
G1 X122.444 Y103.601 E3.67018
G1 X129.279 Y96.765 E3.80834
G1 X128.676 Y96.672 E3.81706
G1 X121.852 Y103.496 E3.95498
G1 X121.261 Y103.391 E3.96357
G1 X128.072 Y96.580 E4.10124
G1 X127.468 Y96.487 E4.10997
G1 X120.669 Y103.287 E4.24739
