; generated by Slic3r 1.1.7 on 2016-11-01 at 22:44:40

; perimeters extrusion width = 0.40mm
; infill extrusion width = 0.67mm
; solid infill extrusion width = 0.50mm
; top infill extrusion width = 0.30mm

G21 ; set units to millimeters
M107
M190 S45 ; wait for bed temperature to be reached
M104 S220 ; set temperature
G28 ; home all axes
M109 S220 ; wait for temperature to be reached
G90 ; use absolute coordinates
G92 E0
M82 ; use absolute distances for extrusion
M204 S500
G1 F3600.000 E-3.00000
G1 Z0.550 F9000.000
G92 E0
G1 X54.473 Y17.605 F9000.000
G1 Z0.300 F9000.000
G1 E2.95000 F3600.000
G1 X56.026 Y12.841 E3.05742 F1800.000
G1 X58.317 Y8.384 E3.16484
G1 X61.286 Y4.348 E3.27227
G1 X64.860 Y0.835 E3.37969
G1 X68.946 Y-2.065 E3.48711
G1 X73.441 Y-4.279 E3.59453
G1 X78.230 Y-5.751 E3.70196
G1 X85.041 Y-6.498 E3.84884
G1 X165.003 Y-6.498 E5.56305
G1 X169.997 Y-6.099 E5.67047
G1 X174.865 Y-4.911 E5.77789 F1800.000
G1 X179.483 Y-2.965 E5.88532
G1 X183.732 Y-0.309 E5.99274
G1 X187.506 Y2.988 E6.10016
G1 X190.708 Y6.842 E6.20758
G1 X193.256 Y11.156 E6.31501
G1 X195.087 Y15.821 E6.42243
G1 X196.349 Y22.567 E6.56957
G1 X204.810 Y135.658 E9.00077
G1 X204.810 Y162.139 E9.56849
G1 X204.411 Y167.134 E9.67591
G1 X203.223 Y172.002 E9.78333
G1 X201.276 Y176.620 E9.89075
G1 X197.543 Y182.241 E10.03541
G1 X186.795 Y195.164 E10.39576
G1 X183.294 Y198.749 E10.50318
G1 X179.268 Y201.732 E10.61060
G1 X174.819 Y204.037 E10.71803
G1 X170.060 Y205.607 E10.82545
G1 X162.626 Y206.498 E10.98596
G1 X87.435 Y206.498 E12.59790
G1 X82.441 Y206.099 E12.70532
G1 X77.573 Y204.911 E12.81274
G1 X72.955 Y202.965 E12.92016
G1 X68.706 Y200.309 E13.02759
G1 X63.314 Y195.221 E13.18651
G1 X52.504 Y182.286 E13.54789
G1 X49.608 Y178.198 E13.65532
G1 X47.398 Y173.700 E13.76274
G1 X45.930 Y168.909 E13.87016
G1 X45.190 Y162.128 E14.01641
G1 X45.280 Y133.291 E14.63462
G1 X53.696 Y22.555 E17.01541
G1 X54.463 Y17.664 E17.12154
G1 X54.947 Y17.680 F9000.000
G1 X56.497 Y12.955 E17.22814 F1800.000
G1 X58.784 Y8.539 E17.33474
G1 X61.748 Y4.547 E17.44134
G1 X65.313 Y1.081 E17.54794
G1 X69.387 Y-1.770 E17.65454
G1 X73.865 Y-3.932 E17.76115
G1 X78.632 Y-5.349 E17.86775
G1 X85.041 Y-6.020 E18.00590
G1 X165.003 Y-6.020 E19.72011
G1 X169.959 Y-5.620 E19.82671
G1 X174.788 Y-4.433 E19.93332 F1800.000
G1 X179.364 Y-2.487 E20.03992
G1 X183.569 Y0.166 E20.14652
G1 X187.296 Y3.458 E20.25312
G1 X190.447 Y7.305 E20.35972
G1 X192.942 Y11.606 E20.46632
G1 X194.716 Y16.251 E20.57292
G1 X195.872 Y22.603 E20.71133
G1 X204.332 Y135.658 E23.14176
G1 X204.332 Y162.139 E23.70947
G1 X203.932 Y167.096 E23.81607
G1 X202.744 Y171.924 E23.92267
G1 X200.799 Y176.500 E24.02927
G1 X197.175 Y181.935 E24.16930
G1 X186.427 Y194.858 E24.52964
G1 X182.951 Y198.413 E24.63624
G1 X178.950 Y201.366 E24.74284
G1 X174.528 Y203.640 E24.84944
G1 X169.799 Y205.177 E24.95604
G1 X162.626 Y206.020 E25.11087
G1 X87.435 Y206.020 E26.72281
G1 X82.479 Y205.620 E26.82941
G1 X77.650 Y204.433 E26.93601
G1 X73.074 Y202.487 E27.04261
G1 X68.869 Y199.834 E27.14921
G1 X63.681 Y194.914 E27.30247
G1 X52.872 Y181.979 E27.66386
G1 X50.000 Y177.920 E27.77046
G1 X47.815 Y173.453 E27.87706
G1 X46.373 Y168.695 E27.98366
G1 X45.668 Y162.128 E28.12525
G1 X45.757 Y133.327 E28.74268
G1 X54.173 Y22.592 E31.12347
G1 X54.938 Y17.739 E31.22878
G1 X55.421 Y17.755 F9000.000
G1 X56.968 Y13.070 E31.33456 F1800.000
G1 X59.251 Y8.695 E31.44033
G1 X62.209 Y4.747 E31.54610
G1 X65.766 Y1.328 E31.65187
G1 X69.828 Y-1.473 E31.75764
G1 X74.289 Y-3.581 E31.86341
G1 X79.031 Y-4.943 E31.96918
G1 X85.041 Y-5.541 E32.09867
G1 X165.003 Y-5.541 E33.81288
G1 X169.920 Y-5.142 E33.91865
G1 X174.709 Y-3.954 E34.02442 F1800.000
G1 X179.243 Y-2.010 E34.13019
G1 X183.405 Y0.641 E34.23596
G1 X187.084 Y3.929 E34.34173
G1 X190.184 Y7.767 E34.44751
G1 X192.625 Y12.055 E34.55328
G1 X194.341 Y16.680 E34.65905
G1 X195.394 Y22.639 E34.78878
G1 X203.853 Y135.658 E37.21844
G1 X203.853 Y162.139 E37.78615
G1 X203.454 Y167.057 E37.89192
G1 X202.266 Y171.846 E37.99769
G1 X200.321 Y176.380 E38.10347
G1 X196.808 Y181.629 E38.23887
G1 X186.059 Y194.552 E38.59922
G1 X182.608 Y198.077 E38.70499
G1 X178.632 Y201.000 E38.81076
G1 X174.238 Y203.243 E38.91653
G1 X169.539 Y204.747 E39.02231
G1 X162.626 Y205.541 E39.17147
G1 X87.435 Y205.541 E40.78341
G1 X82.518 Y205.142 E40.88918
G1 X77.729 Y203.954 E40.99495
G1 X73.195 Y202.010 E41.10073
G1 X69.033 Y199.359 E41.20650
G1 X64.049 Y194.607 E41.35413
G1 X53.239 Y181.673 E41.71551
G1 X50.392 Y177.643 E41.82128
G1 X48.232 Y173.207 E41.92705
G1 X46.816 Y168.481 E42.03283
G1 X46.147 Y162.128 E42.16977
G1 X46.235 Y133.363 E42.78643
G1 X54.650 Y22.628 E45.16722
G1 X55.412 Y17.814 E45.27170
G1 F3600.000 E42.27170
G1 Z0.550 F9000.000
G92 E0
G1 X89.273 Y31.788 F9000.000
G1 Z0.300 F9000.000
G1 E2.95000 F3600.000
G1 X89.273 Y31.376 E2.95885 F1800.000
G1 X89.134 Y31.342 E2.96192
G1 X88.458 Y30.694 E2.98198
G1 X88.197 Y29.795 E3.00205
G1 X88.420 Y28.886 E3.02211
G1 X89.067 Y28.211 E3.04218
G1 X90.736 Y27.726 E3.07942
G1 X90.736 Y28.138 E3.08827
G1 X90.875 Y28.172 E3.09134
G1 X91.551 Y28.820 E3.11140
G1 X91.812 Y29.719 E3.13147
G1 X91.589 Y30.628 E3.15153
G1 X90.941 Y31.303 E3.17160
G1 X89.331 Y31.772 E3.20755
G1 X89.752 Y31.151 F9000.000
G1 X89.752 Y31.000 E3.21078 F1800.000
G1 X89.372 Y30.907 E3.21915
G1 X88.882 Y30.437 E3.23372
G1 X88.692 Y29.785 E3.24828
G1 X88.854 Y29.125 E3.26285
G1 X89.324 Y28.634 E3.27742
G1 X90.257 Y28.363 E3.29824 F1800.000
G1 X90.257 Y28.514 E3.30147
G1 X90.636 Y28.607 E3.30984
G1 X91.127 Y29.077 E3.32441
G1 X91.317 Y29.729 E3.33897
G1 X91.155 Y30.389 E3.35354
G1 X90.685 Y30.880 E3.36811
G1 X89.809 Y31.134 E3.38765
G1 F3600.000 E0.38765
G1 Z0.550 F9000.000
G92 E0
G1 X89.179 Y28.262 F9000.000
G1 X158.185 Y29.767 F9000.000
G1 Z0.300 F9000.000
G1 E2.95000 F3600.000
G1 X158.428 Y28.862 E2.97008 F1800.000
G1 X159.090 Y28.200 E2.99015
G1 X159.995 Y27.958 E3.01023
G1 X160.672 Y28.139 E3.02526
G1 X160.899 Y28.200 E3.03031 F1800.000
G1 X161.562 Y28.862 E3.05039
G1 X161.804 Y29.767 E3.07046
G1 X161.562 Y30.672 E3.09054
G1 X160.899 Y31.334 E3.11062
G1 X159.995 Y31.576 E3.13070
G1 X159.090 Y31.334 E3.15077
G1 X158.428 Y30.672 E3.17085
G1 X158.201 Y29.825 E3.18964
G1 X158.681 Y29.767 F9000.000
G1 X158.857 Y29.110 E3.20422 F1800.000
G1 X159.338 Y28.629 E3.21880
G1 X159.891 Y28.481 E3.23107
G1 X159.995 Y28.453 E3.23338 F1800.000
G1 X160.652 Y28.629 E3.24796
G1 X161.133 Y29.110 E3.26254
G1 X161.309 Y29.767 E3.27712
G1 X161.133 Y30.424 E3.29170
G1 X160.652 Y30.905 E3.30628
G1 X159.995 Y31.081 E3.32085
G1 X159.338 Y30.905 E3.33543
G1 X158.857 Y30.424 E3.35001
G1 X158.696 Y29.825 E3.36331
G1 F3600.000 E0.36331
G1 Z0.550 F9000.000
G92 E0
G1 X159.890 Y28.374 F9000.000
G1 X130.889 Y58.488 F9000.000
G1 Z0.300 F9000.000
G1 E2.95000 F3600.000
G1 X131.127 Y58.250 E2.95722 F1800.000
G1 X132.013 Y58.013 E2.97689
G1 X132.899 Y58.250 E2.99655
G1 X133.548 Y58.899 E3.01622
G1 X133.785 Y59.785 E3.03589
G1 X133.548 Y60.671 E3.05556
G1 X132.899 Y61.320 E3.07522
G1 X132.013 Y61.557 E3.09489
G1 X131.127 Y61.320 E3.11456
G1 X130.889 Y61.082 E3.12178
G1 X130.187 Y62.776 E3.16110
G1 X129.236 Y64.015 E3.19458
G1 X127.997 Y64.966 E3.22805
G1 X126.555 Y65.563 E3.26153
G1 X125.006 Y65.767 E3.29501
G1 X123.458 Y65.563 E3.32849
G1 X122.015 Y64.966 E3.36197
G1 X120.776 Y64.015 E3.39545
G1 X119.825 Y62.776 E3.42893
G1 X119.124 Y61.083 E3.46821
G1 X118.888 Y61.320 E3.47538
G1 X118.002 Y61.557 E3.49504
G1 X117.116 Y61.320 E3.51470
G1 X116.467 Y60.671 E3.53437
G1 X116.230 Y59.785 E3.55403
G1 X116.467 Y58.899 E3.57370
G1 X117.116 Y58.250 E3.59336
G1 X118.002 Y58.013 E3.61303
G1 X118.888 Y58.250 E3.63269
G1 X119.124 Y58.487 E3.63986
G1 X119.825 Y56.794 E3.67914
G1 X120.776 Y55.555 E3.71262
G1 X122.015 Y54.604 E3.74610
G1 X123.458 Y54.007 E3.77958
G1 X125.006 Y53.803 E3.81306
G1 X126.555 Y54.007 E3.84654
G1 X127.997 Y54.604 E3.88002
G1 X129.236 Y55.555 E3.91349
G1 X130.187 Y56.794 E3.94697
G1 X130.866 Y58.433 E3.98501
G1 F3600.000 E0.98501
G1 Z0.550 F9000.000
G92 E0
G1 X130.790 Y59.584 F9000.000
G1 Z0.300 F9000.000
G1 E2.95000 F3600.000
G1 X130.907 Y59.147 E2.95971 F1800.000
G1 X131.375 Y58.679 E2.97388
G1 X132.013 Y58.508 E2.98805
G1 X132.652 Y58.679 E3.00222
G1 X133.119 Y59.147 E3.01639
G1 X133.290 Y59.785 E3.03056
G1 X133.119 Y60.423 E3.04473
G1 X132.652 Y60.891 E3.05889
G1 X132.013 Y61.062 E3.07306
G1 X131.375 Y60.891 E3.08723
G1 X130.907 Y60.423 E3.10140
G1 X130.790 Y59.986 E3.11111
G1 X130.477 Y60.007 E3.11785
G1 X130.318 Y61.208 E3.14383
G1 X129.769 Y62.535 E3.17461
G1 X128.895 Y63.674 E3.20539
G1 X127.756 Y64.548 E3.23617
G1 X126.430 Y65.097 E3.26695
G1 X125.006 Y65.285 E3.29772
G1 X123.583 Y65.097 E3.32850
G1 X122.256 Y64.548 E3.35928
G1 X121.117 Y63.674 E3.39006
G1 X120.243 Y62.535 E3.42084
G1 X119.694 Y61.208 E3.45161
G1 X119.537 Y60.012 E3.47748
G1 X119.223 Y59.992 E3.48421
G1 X119.107 Y60.423 E3.49379
G1 X118.640 Y60.891 E3.50795
G1 X118.002 Y61.062 E3.52212
G1 X117.364 Y60.891 E3.53629
G1 X116.896 Y60.423 E3.55045
G1 X116.725 Y59.785 E3.56462
G1 X116.896 Y59.147 E3.57879
G1 X117.364 Y58.679 E3.59296
G1 X118.002 Y58.508 E3.60712
G1 X118.640 Y58.679 E3.62129
G1 X119.107 Y59.147 E3.63546
G1 X119.223 Y59.578 E3.64503
G1 X119.537 Y59.558 E3.65177
G1 X119.694 Y58.362 E3.67763
G1 X120.243 Y57.035 E3.70841
G1 X121.117 Y55.896 E3.73918
G1 X122.256 Y55.022 E3.76996
G1 X123.583 Y54.473 E3.80074
G1 X125.006 Y54.285 E3.83152
G1 X126.430 Y54.473 E3.86230
G1 X127.756 Y55.022 E3.89307
G1 X128.895 Y55.896 E3.92385
G1 X129.769 Y57.035 E3.95463
G1 X130.318 Y58.362 E3.98541
G1 X130.477 Y59.563 E4.01140
G1 X130.730 Y59.580 E4.01684
G1 X130.662 Y59.205 F9000.000
G1 F3600.000 E1.01684
G1 Z0.550 F9000.000
G92 E0
G1 X145.668 Y93.119 F9000.000
G1 Z0.300 F9000.000
G1 E2.95000 F3600.000
G1 X146.760 Y92.325 E2.97895 F1800.000
G1 X148.179 Y92.325 E3.00935
G1 X149.326 Y93.159 E3.03976
G1 X149.765 Y94.508 E3.07017
G1 X149.326 Y95.857 E3.10057
G1 X148.975 Y96.112 E3.10987
G1 X149.061 Y96.376 E3.11583
G1 X150.728 Y96.376 E3.15157
G1 X150.728 Y137.173 E4.02618
G1 X149.108 Y137.173 E4.06091
G1 X149.022 Y137.438 E4.06687
G1 X149.326 Y137.659 E4.07493
G1 X149.765 Y139.008 E4.10533
G1 X149.326 Y140.357 E4.13574
G1 X148.179 Y141.190 E4.16615
G1 X146.760 Y141.190 E4.19655
G1 X145.668 Y140.397 E4.22550
G1 X145.668 Y142.333 E4.26702
G1 X104.331 Y142.333 E5.15319
G1 X104.331 Y140.389 E5.19487
G1 X103.239 Y141.183 E5.22381
G1 X101.821 Y141.183 E5.25422
G1 X100.673 Y140.349 E5.28463
G1 X100.235 Y139.000 E5.31503
G1 X100.673 Y137.651 E5.34544
G1 X100.977 Y137.430 E5.35350
G1 X100.891 Y137.166 E5.35946
G1 X99.271 Y137.166 E5.39419
G1 X99.271 Y96.376 E6.26864
G1 X100.938 Y96.376 E6.30437
G1 X101.024 Y96.112 E6.31034
G1 X100.673 Y95.857 E6.31963
G1 X100.235 Y94.508 E6.35004
G1 X100.673 Y93.159 E6.38045
G1 X101.821 Y92.325 E6.41085
G1 X103.239 Y92.325 E6.44126
G1 X104.331 Y93.119 E6.47021
G1 X104.331 Y91.216 E6.51099
G1 X145.668 Y91.216 E7.39716
G1 X145.668 Y93.059 E7.43666
G1 X146.020 Y93.455 F9000.000
G1 X146.916 Y92.804 E7.46040 F1800.000
G1 X148.023 Y92.804 E7.48414 F1800.000
G1 X148.919 Y93.455 E7.50788
G1 X149.261 Y94.508 E7.53162
G1 X148.919 Y95.561 E7.55536
G1 X148.023 Y96.212 E7.57910
G1 X146.916 Y96.212 E7.60284
G1 X146.020 Y95.561 E7.62658
G1 X145.678 Y94.508 E7.65032
G1 X146.002 Y93.512 E7.67277
G1 F3600.000 E4.67277
G1 Z0.550 F9000.000
G92 E0
G1 X147.213 Y93.071 F9000.000
G1 X146.916 Y137.304 F9000.000
G1 Z0.300 F9000.000
G1 E2.95000 F3600.000
G1 X148.023 Y137.304 E2.97374 F1800.000
G1 X148.919 Y137.955 E2.99748
G1 X149.226 Y138.897 E3.01873
G1 X149.261 Y139.008 E3.02122
G1 X148.919 Y140.061 E3.04496
G1 X148.023 Y140.712 E3.06870
G1 X146.916 Y140.712 E3.09244
G1 X146.020 Y140.061 E3.11618
G1 X145.678 Y139.008 E3.13992
G1 X146.020 Y137.955 E3.16366
G1 X146.773 Y137.407 E3.18362
G1 X147.184 Y137.601 F9000.000
G1 F3600.000 E0.18362
G1 Z0.550 F9000.000
G92 E0
G1 X104.322 Y139.000 F9000.000
G1 Z0.300 F9000.000
G1 E2.95000 F3600.000
G1 X103.979 Y140.053 E2.97374 F1800.000
G1 X103.084 Y140.704 E2.99748
G1 X101.976 Y140.704 E3.02122
G1 X101.080 Y140.053 E3.04496
G1 X100.738 Y139.000 E3.06870
G1 X101.080 Y137.947 E3.09244
G1 X101.976 Y137.296 E3.11618
G1 X103.084 Y137.296 E3.13992 F1800.000
G1 X103.979 Y137.947 E3.16366
G1 X104.303 Y138.943 E3.18611
G1 F3600.000 E0.18611
G1 Z0.550 F9000.000
G92 E0
G1 X102.374 Y137.338 F9000.000
G1 X103.084 Y96.212 F9000.000
G1 Z0.300 F9000.000
G1 E2.95000 F3600.000
G1 X101.976 Y96.212 E2.97374 F1800.000
G1 X101.080 Y95.561 E2.99748
G1 X100.738 Y94.508 E3.02122
G1 X101.080 Y93.455 E3.04496
G1 X101.976 Y92.804 E3.06870
G1 X103.084 Y92.804 E3.09244 F1800.000
G1 X103.979 Y93.455 E3.11618
G1 X104.322 Y94.508 E3.13992
G1 X103.979 Y95.561 E3.16366
G1 X103.132 Y96.177 E3.18611
G1 F3600.000 E0.18611
G1 Z0.550 F9000.000
G92 E0
G1 X102.357 Y92.927 F9000.000
G1 X104.810 Y96.855 F9000.000
G1 Z0.300 F9000.000
G1 E2.95000 F3600.000
G1 X104.810 Y91.695 E3.06061 F1800.000
G1 X145.190 Y91.695 E3.92627
G1 X145.190 Y96.855 E4.03688
G1 X150.250 Y96.855 E4.14537
G1 X150.250 Y136.695 E4.99946
G1 X145.190 Y136.695 E5.10794
G1 X145.190 Y141.855 E5.21855
G1 X104.810 Y141.855 E6.08421
G1 X104.810 Y136.687 E6.19499
G1 X99.750 Y136.687 E6.30347
G1 X99.750 Y96.855 E7.15740
G1 X104.750 Y96.855 E7.26460
G1 X104.610 Y96.508 F9000.000
G1 F3600.000 E4.26460
G1 Z0.550 F9000.000
G92 E0
G1 X106.363 Y144.063 F9000.000
G1 Z0.300 F9000.000
G1 E2.95000 F3600.000
G1 X143.648 Y144.063 E3.74932 F1800.000
G1 X143.648 Y165.592 E4.21085
G1 X106.363 Y165.592 E5.01017
G1 X106.363 Y144.123 E5.47042
G1 X106.842 Y144.542 F9000.000
G1 X143.170 Y144.542 E6.24922 F1800.000
G1 X143.170 Y165.114 E6.69024
G1 X106.842 Y165.114 E7.46904
G1 X106.842 Y144.602 E7.90877
G1 X106.842 Y144.142 F9000.000
G1 F3600.000 E4.90877
G1 Z0.550 F9000.000
G92 E0
G1 X114.728 Y84.061 F9000.000
G1 Z0.300 F9000.000
G1 E2.95000 F3600.000
G1 X114.728 Y49.088 E3.69975 F1800.000
G1 X111.513 Y48.796 E3.76896
G1 X108.989 Y48.456 E3.82357
G1 X106.482 Y48.006 E3.87817
G1 X103.827 Y47.403 E3.93653
G1 X101.538 Y46.784 E3.98738
G1 X99.110 Y46.014 E4.04198
G1 X96.718 Y45.139 E4.09659
G1 X94.366 Y44.161 E4.15119
G1 X92.058 Y43.082 E4.20580
G1 X89.800 Y41.905 E4.26041
G1 X87.594 Y40.630 E4.31501
G1 X85.770 Y39.468 E4.36139
G1 X85.770 Y25.666 E4.65727
G1 X99.375 Y25.666 E4.94895
G1 X99.375 Y34.835 E5.14551
G1 X150.615 Y34.835 E6.24399
G1 X150.615 Y25.666 E6.44055
G1 X164.274 Y25.666 E6.73336
G1 X164.274 Y39.468 E7.02924
G1 X162.446 Y40.630 E7.07568
G1 X160.237 Y41.905 E7.13036
G1 X157.974 Y43.082 E7.18504
G1 X155.663 Y44.161 E7.23972
G1 X153.307 Y45.139 E7.29440
G1 X150.911 Y46.014 E7.34908
G1 X148.480 Y46.784 E7.40376
G1 X146.017 Y47.449 E7.45844
G1 X143.528 Y48.006 E7.51312
G1 X141.018 Y48.456 E7.56780
G1 X138.490 Y48.796 E7.62248
G1 X135.271 Y49.088 E7.69177
G1 X135.271 Y84.061 E8.44152
G1 X149.868 Y84.061 E8.75444
G1 X150.706 Y84.375 E8.77362
G1 X151.611 Y84.796 E8.79502
G1 X152.481 Y85.286 E8.81643
G1 X153.310 Y85.841 E8.83783
G1 X154.095 Y86.459 E8.85923
G1 X154.829 Y87.135 E8.88063
G1 X155.509 Y87.866 E8.90204
G1 X156.131 Y88.647 E8.92344
G1 X156.690 Y89.474 E8.94484
G1 X157.184 Y90.341 E8.96624
G1 X157.610 Y91.244 E8.98765
G1 X157.970 Y92.191 E9.00935
G1 X172.646 Y135.777 E9.99530
G1 X172.646 Y161.876 E10.55481
G1 X162.285 Y174.334 E10.90218
G1 X87.776 Y174.334 E12.49949
G1 X77.354 Y161.863 E12.84791
G1 X77.354 Y135.793 E13.40681
G1 X92.073 Y92.191 E14.39337
G1 X92.433 Y91.248 E14.41501
G1 X92.857 Y90.347 E14.43635
G1 X93.349 Y89.482 E14.45769
G1 X93.906 Y88.657 E14.47903
G1 X94.494 Y87.916 E14.49930
G1 X95.201 Y87.146 E14.52171
G1 X95.932 Y86.470 E14.54305
G1 X96.712 Y85.851 E14.56440
G1 X97.537 Y85.295 E14.58574
G1 X98.402 Y84.802 E14.60708
G1 X99.303 Y84.378 E14.62842
G1 X100.134 Y84.061 E14.64749
G1 X114.668 Y84.061 E14.95908
G1 X114.250 Y83.583 F9000.000
G1 X114.250 Y49.525 E15.68920 F1800.000
G1 X111.460 Y49.271 E15.74927
G1 X108.915 Y48.928 E15.80432
G1 X106.387 Y48.475 E15.85937
G1 X103.702 Y47.865 E15.91839
G1 X101.403 Y47.243 E15.96946
G1 X98.955 Y46.467 E16.02451
G1 X96.543 Y45.585 E16.07956
G1 X94.172 Y44.599 E16.13461
