; generated by Slic3r 1.2.9 on 2016-11-04 at 02:21:58

; external perimeters extrusion width = 0.40mm
; perimeters extrusion width = 0.67mm
; infill extrusion width = 0.67mm
; solid infill extrusion width = 0.50mm
; top infill extrusion width = 0.30mm

M107
M190 S45 ; set bed temperature
M104 S220 ; set temperature
G28 ; home all axes
M109 S220 ; wait for temperature to be reached
G21 ; set units to millimeters
G90 ; use absolute coordinates
M82 ; use absolute distances for extrusion
G92 E0
G1 E-3.00000 F3600.00000
G92 E0
G1 Z0.250 F9000.000
G1 Z0.300 F9000.000
G1 Z0.550 F9000.000
G1 X53.978 Y49.639 F9000.000
G1 Z0.300 F9000.000
G1 E2.95000 F3600.00000
M204 S500
G1 X57.830 Y46.451 E3.04759 F1800.000
G1 X61.908 Y44.031 E3.14012
G1 X106.406 Y21.995 E4.10916
G1 X111.050 Y20.141 E4.20674
G1 X115.930 Y19.050 E4.30433
G1 X120.299 Y18.743 E4.38980
G1 X174.114 Y18.743 E5.44002
G1 X179.099 Y19.143 E5.53760
G1 X183.956 Y20.330 E5.63519 F1800.000
G1 X188.562 Y22.277 E5.73278
G1 X192.800 Y24.931 E5.83036
G1 X196.561 Y28.227 E5.92795
G1 X199.749 Y32.079 E6.02554
G1 X202.284 Y36.390 E6.12312
G1 X204.099 Y41.049 E6.22071
G1 X205.150 Y45.938 E6.31830
G1 X205.421 Y50.050 E6.39871
G1 X205.421 Y149.948 E8.34824
G1 X205.022 Y154.933 E8.44583
G1 X203.834 Y159.790 E8.54342
G1 X201.888 Y164.396 E8.64100
G1 X199.233 Y168.634 E8.73859
G1 X195.937 Y172.395 E8.83618
G1 X192.085 Y175.583 E8.93376
G1 X187.774 Y178.117 E9.03135
G1 X183.115 Y179.933 E9.12894
G1 X178.226 Y180.984 E9.22652
G1 X174.114 Y181.255 E9.30694
G1 X120.299 Y181.255 E10.35715
G1 X115.314 Y180.855 E10.45474
G1 X110.457 Y179.668 E10.55233
G1 X106.430 Y178.015 E10.63727
G1 X61.932 Y156.027 E11.60589
G1 X57.640 Y153.461 E11.70348
G1 X53.812 Y150.244 E11.80107
G1 X50.544 Y146.459 E11.89865
G1 X47.921 Y142.202 E11.99624
G1 X46.009 Y137.581 E12.09383
G1 X44.857 Y132.715 E12.19141
G1 X44.494 Y127.960 E12.28448
G1 X44.494 Y72.086 E13.37487
G1 X44.893 Y67.101 E13.47245
G1 X46.081 Y62.244 E13.57004
G1 X48.028 Y57.638 E13.66763
G1 X50.682 Y53.400 E13.76521
G1 X53.938 Y49.684 E13.86163
M204 S1000
G1 X54.313 Y49.936 F9000.000
M204 S500
G1 X54.406 Y49.831 E13.86437 F1800.000
G1 X58.251 Y46.688 E13.96128
G1 X62.101 Y44.421 E14.04847
G1 X106.599 Y22.385 E15.01750
G1 X111.212 Y20.547 E15.11441
G1 X116.059 Y19.471 E15.21131
G1 X120.299 Y19.179 E15.29424
G1 X174.114 Y19.179 E16.34446
G1 X179.064 Y19.578 E16.44136
G1 X183.885 Y20.766 E16.53827 F1800.000
G1 X188.454 Y22.711 E16.63517
G1 X192.651 Y25.364 E16.73207
G1 X196.369 Y28.655 E16.82898
G1 X199.512 Y32.500 E16.92588
G1 X201.997 Y36.799 E17.02279
G1 X203.761 Y41.441 E17.11969
G1 X204.757 Y46.305 E17.21660
G1 X204.985 Y50.050 E17.28981
G1 X204.985 Y149.948 E19.23934
G1 X204.586 Y154.897 E19.33624
G1 X203.398 Y159.719 E19.43315
G1 X201.453 Y164.288 E19.53005
G1 X198.800 Y168.485 E19.62695
G1 X195.509 Y172.203 E19.72386
G1 X191.664 Y175.346 E19.82076
G1 X187.365 Y177.831 E19.91767
G1 X182.723 Y179.595 E20.01457
G1 X177.859 Y180.591 E20.11148
G1 X174.114 Y180.819 E20.18469
G1 X120.299 Y180.819 E21.23490
G1 X115.349 Y180.420 E21.33181
G1 X110.528 Y179.232 E21.42871
G1 X106.623 Y177.625 E21.51112
G1 X62.125 Y155.637 E22.47974
G1 X57.865 Y153.086 E22.57665
G1 X54.068 Y149.885 E22.67355
G1 X50.834 Y146.117 E22.77045
G1 X48.246 Y141.880 E22.86736
G1 X46.371 Y137.282 E22.96426
G1 X45.257 Y132.443 E23.06117
G1 X44.930 Y127.960 E23.14888
G1 X44.930 Y72.086 E24.23927
G1 X45.329 Y67.137 E24.33618
G1 X46.517 Y62.315 E24.43308
G1 X48.462 Y57.746 E24.52998
G1 X51.115 Y53.549 E24.62689
G1 X54.273 Y49.981 E24.71988
M204 S1000
G1 X54.647 Y50.234 F9000.000
M204 S500
G1 X54.835 Y50.024 E24.72538 F1800.000
G1 X58.672 Y46.928 E24.82160
G1 X62.294 Y44.812 E24.90348
G1 X106.792 Y22.776 E25.87251
G1 X111.373 Y20.953 E25.96873
G1 X116.189 Y19.893 E26.06495
G1 X120.299 Y19.614 E26.14535
G1 X174.114 Y19.614 E27.19556
G1 X179.028 Y20.014 E27.29178
G1 X183.813 Y21.201 E27.38799 F1800.000
G1 X188.344 Y23.146 E27.48421
G1 X192.501 Y25.796 E27.58043
G1 X196.176 Y29.084 E27.67665
G1 X199.272 Y32.921 E27.77286
G1 X201.708 Y37.208 E27.86908
G1 X203.419 Y41.831 E27.96530
G1 X204.362 Y46.671 E28.06151
G1 X204.550 Y50.050 E28.12756
G1 X204.550 Y149.948 E30.07709
G1 X204.150 Y154.862 E30.17331
G1 X202.963 Y159.647 E30.26953
G1 X201.018 Y164.178 E30.36574
G1 X198.368 Y168.335 E30.46196
G1 X195.081 Y172.010 E30.55818
G1 X191.243 Y175.106 E30.65439
G1 X186.957 Y177.541 E30.75061
G1 X182.333 Y179.253 E30.84683
G1 X177.493 Y180.195 E30.94304
G1 X174.114 Y180.384 E31.00909
G1 X120.299 Y180.384 E32.05931
G1 X115.385 Y179.984 E32.15552
G1 X110.600 Y178.797 E32.25174
G1 X106.816 Y177.234 E32.33163
G1 X62.318 Y155.246 E33.30025
G1 X58.089 Y152.711 E33.39646
G1 X54.325 Y149.527 E33.49268
G1 X51.125 Y145.776 E33.58890
G1 X48.572 Y141.558 E33.68512
G1 X46.734 Y136.983 E33.78133
G1 X45.658 Y132.172 E33.87755
G1 X45.365 Y127.960 E33.95994
G1 X45.365 Y72.086 E35.05033
G1 X45.765 Y67.172 E35.14655
G1 X46.952 Y62.387 E35.24277
G1 X48.897 Y57.856 E35.33898
G1 X51.547 Y53.699 E35.43520
G1 X54.607 Y50.279 E35.52474
M204 S1000
G1 E32.52474 F3600.00000
G92 E0
G1 Z0.550 F9000.000
G1 X161.449 Y140.598 F9000.000
G1 Z0.300 F9000.000
G1 E2.95000 F3600.00000
M204 S500
G1 X169.649 Y140.598 E3.11002 F1800.000
G1 X169.649 Y148.798 E3.27005
G1 X161.449 Y148.798 E3.43007
G1 X161.449 Y140.658 E3.58893
M204 S1000
G1 X161.449 Y140.198 F9000.000
G1 E0.58893 F3600.00000
G92 E0
G1 Z0.550 F9000.000
G1 X159.299 Y105.889 F9000.000
G1 Z0.300 F9000.000
G1 E2.95000 F3600.00000
M204 S500
G1 X157.776 Y105.690 E2.97997 F1800.000
G1 X156.353 Y105.101 E3.01003
G1 X155.134 Y104.165 E3.04003
G1 X154.198 Y102.944 E3.07005
G1 X153.609 Y101.523 E3.10006
G1 X153.407 Y99.998 E3.13008
G1 X153.609 Y98.475 E3.16007
G1 X154.198 Y97.052 E3.19011
G1 X155.134 Y95.833 E3.22011
G1 X156.353 Y94.897 E3.25010
G1 X157.776 Y94.308 E3.28015
G1 X159.159 Y94.125 E3.30738
G1 X159.299 Y94.106 E3.31014 F1800.000
G1 X160.824 Y94.308 E3.34016
G1 X162.245 Y94.897 E3.37017
G1 X163.466 Y95.833 E3.40019
G1 X164.402 Y97.052 E3.43019
G1 X164.991 Y98.475 E3.46025
G1 X165.190 Y99.998 E3.49022
G1 X164.991 Y101.523 E3.52023
G1 X164.402 Y102.944 E3.55025
G1 X163.466 Y104.165 E3.58028
G1 X162.245 Y105.101 E3.61030
G1 X160.824 Y105.690 E3.64032
G1 X159.358 Y105.882 E3.66916
M204 S1000
G1 X159.299 Y105.450 F9000.000
M204 S500
G1 X157.890 Y105.266 E3.69690 F1800.000
G1 X156.573 Y104.720 E3.72471
G1 X155.445 Y103.854 E3.75247
G1 X154.579 Y102.724 E3.78026
G1 X154.033 Y101.409 E3.80803
G1 X153.847 Y99.998 E3.83581
G1 X154.033 Y98.589 E3.86356
G1 X154.579 Y97.272 E3.89137
G1 X155.445 Y96.144 E3.91913
G1 X156.573 Y95.278 E3.94688
G1 X157.890 Y94.732 E3.97469
G1 X159.216 Y94.557 E4.00080
G1 X159.299 Y94.546 E4.00244 F1800.000
G1 X160.710 Y94.732 E4.03022
G1 X162.025 Y95.278 E4.05799
G1 X163.155 Y96.144 E4.08578
G1 X164.021 Y97.272 E4.11354
G1 X164.567 Y98.589 E4.14136
G1 X164.751 Y99.998 E4.16909
G1 X164.567 Y101.409 E4.19686
G1 X164.021 Y102.724 E4.22464
G1 X163.155 Y103.854 E4.25243
G1 X162.025 Y104.720 E4.28022
G1 X160.710 Y105.266 E4.30800
G1 X159.358 Y105.442 E4.33460
M204 S1000
G1 X159.084 Y105.788 F9000.000
G1 E1.33460 F3600.00000
G92 E0
G1 Z0.550 F9000.000
G1 X161.013 Y140.162 F9000.000
G1 Z0.300 F9000.000
G1 E2.95000 F3600.00000
M204 S500
G1 X161.013 Y149.262 E3.12759 F1800.000
G1 X120.985 Y149.262 E3.90876
G1 X120.985 Y127.274 E4.33786
G1 X85.585 Y127.274 E5.02870
G1 X85.585 Y118.174 E5.20628
G1 X76.487 Y118.174 E5.38383
G1 X76.487 Y81.872 E6.09229
G1 X85.585 Y81.872 E6.26984
G1 X85.585 Y72.772 E6.44743
G1 X120.985 Y72.772 E7.13826
G1 X120.985 Y50.736 E7.56830
G1 X161.013 Y50.736 E8.34947
G1 X161.013 Y59.834 E8.52702
G1 X170.085 Y59.834 E8.70405
G1 X170.085 Y50.736 E8.88160
G1 X173.428 Y50.736 E8.94685
G1 X173.428 Y149.262 E10.86962
G1 X170.085 Y149.262 E10.93488
G1 X170.085 Y140.162 E11.11247
G1 X161.073 Y140.162 E11.28832
M204 S1000
G1 E8.28832 F3600.00000
G92 E0
G1 Z0.550 F9000.000
G1 X161.449 Y59.398 F9000.000
G1 Z0.300 F9000.000
G1 E2.95000 F3600.00000
M204 S500
G1 X161.449 Y51.198 E3.11002 F1800.000
G1 X169.649 Y51.198 E3.27005
G1 X169.649 Y59.398 E3.43007
G1 X161.509 Y59.398 E3.58893
M204 S1000
G1 X161.049 Y59.398 F9000.000
G1 E0.58893 F3600.00000
G92 E0
G1 Z0.550 F9000.000
G1 X85.149 Y73.236 F9000.000
G1 Z0.300 F9000.000
G1 E2.95000 F3600.00000
M204 S500
G1 X85.149 Y81.436 E3.11002 F1800.000
G1 X76.951 Y81.436 E3.27001
G1 X76.951 Y73.236 E3.43003
G1 X85.089 Y73.236 E3.58885
M204 S1000
G1 X85.549 Y73.236 F9000.000
G1 E0.58885 F3600.00000
G92 E0
G1 Z0.550 F9000.000
G1 X85.149 Y118.610 F9000.000
G1 Z0.300 F9000.000
G1 E2.95000 F3600.00000
M204 S500
G1 X85.149 Y126.810 E3.11002 F1800.000
G1 X76.951 Y126.810 E3.27001
G1 X76.951 Y118.610 E3.43003
G1 X85.089 Y118.610 E3.58885
M204 S1000
G1 X85.549 Y118.610 F9000.000
G1 E0.58885 F3600.00000
G92 E0
G1 Z0.550 F9000.000
G1 X120.549 Y127.710 F9000.000
G1 Z0.300 F9000.000
G1 E2.95000 F3600.00000
M204 S500
G1 X76.051 Y127.710 E3.81839 F1800.000
G1 X76.051 Y72.336 E4.89902
G1 X120.549 Y72.336 E5.76741
G1 X120.549 Y50.300 E6.19745
G1 X173.864 Y50.300 E7.23790
G1 X173.864 Y149.698 E9.17767
G1 X120.549 Y149.698 E10.21813
G1 X120.549 Y127.770 E10.64606
M204 S1000
G1 X120.549 Y127.310 F9000.000
G1 E7.64606 F3600.00000
G92 E0
G1 Z0.550 F9000.000
G1 X85.367 Y127.260 F9000.000
G1 Z0.300 F9000.000
G1 E2.95000 F3600.00000
M204 S500
G1 X76.733 Y127.260 E3.31187 F1800.000
G1 X76.541 Y127.220 E3.32011
G1 X76.501 Y127.028 E3.32834
G1 X76.501 Y118.392 E3.69030
M204 S1000
G1 E0.69030 F3600.00000
G92 E0
G1 Z0.550 F9000.000
G1 X76.501 Y81.654 F9000.000
G1 Z0.300 F9000.000
G1 E2.95000 F3600.00000
M204 S500
G1 X76.501 Y73.018 E3.31196 F1800.000
G1 X76.541 Y72.826 E3.32019
G1 X76.733 Y72.786 E3.32842
G1 X85.367 Y72.786 E3.69030
M204 S1000
G1 E0.69030 F3600.00000
G92 E0
G1 Z0.550 F9000.000
G1 X121.242 Y71.485 F9000.000
G1 Z0.300 F9000.000
G1 E2.95000 F3600.00000
M204 S500
G1 X173.171 Y123.413 E4.38546 F1800.000
G1 X173.171 Y124.030 E4.39752
G1 X121.242 Y72.102 E5.83298
G1 X121.242 Y72.719 E5.84504
G1 X173.171 Y124.647 E7.28050
G1 X173.171 Y125.265 E7.29256
G1 X120.936 Y73.029 E8.73650
G1 X120.319 Y73.029 E8.74856
G1 X173.171 Y125.882 E10.20956
G1 X173.171 Y126.499 E10.22162
G1 X119.701 Y73.029 E11.69968
G1 X119.084 Y73.029 E11.71174
G1 X173.171 Y127.116 E13.20686
G1 X173.171 Y127.733 E13.21892
G1 X118.467 Y73.029 E14.73109
G1 X117.850 Y73.029 E14.74315
G1 X173.171 Y128.350 E16.27238
G1 X173.171 Y128.967 E16.28444
G1 X117.233 Y73.029 E17.83072
G1 X116.616 Y73.029 E17.84279
G1 X173.171 Y129.584 E19.40613
G1 X173.171 Y130.201 E19.41819
G1 X115.999 Y73.029 E20.99859
G1 X115.382 Y73.029 E21.01065
G1 X173.171 Y130.818 E22.60811
G1 X173.171 Y131.435 E22.62017
G1 X114.765 Y73.029 E24.23469
G1 X114.148 Y73.029 E24.24675
G1 X173.171 Y132.052 E25.87832
G1 X173.171 Y132.669 E25.89038
G1 X113.531 Y73.029 E27.53901
G1 X112.914 Y73.029 E27.55107
G1 X173.171 Y133.286 E29.21676
G1 X173.171 Y133.903 E29.22882
G1 X112.297 Y73.029 E30.91156
G1 X111.680 Y73.029 E30.92362
G1 X173.171 Y134.520 E32.62343
G1 X173.171 Y135.137 E32.63549
G1 X111.063 Y73.029 E34.35235
G1 X110.446 Y73.029 E34.36441
G1 X173.171 Y135.754 E36.09832
G1 X173.171 Y136.371 E36.11038
G1 X109.829 Y73.029 E37.86136
G1 X109.212 Y73.029 E37.87342
G1 X173.171 Y136.989 E39.64145
G1 X173.171 Y137.606 E39.65351
G1 X108.595 Y73.029 E41.43860
G1 X107.977 Y73.029 E41.45066
G1 X173.171 Y138.223 E43.25280
G1 X173.171 Y138.840 E43.26486
G1 X107.360 Y73.029 E45.08407
G1 X106.743 Y73.029 E45.09613
G1 X173.171 Y139.457 E46.93239
G1 X173.171 Y140.074 E46.94445
G1 X106.126 Y73.029 E48.79776
G1 X105.509 Y73.029 E48.80983
G1 X173.171 Y140.691 E50.68020
G1 X173.171 Y141.308 E50.69226
G1 X104.892 Y73.029 E52.57969
G1 X104.275 Y73.029 E52.59175
G1 X173.171 Y141.925 E54.49624
G1 X173.171 Y142.542 E54.50830
G1 X103.658 Y73.029 E56.42985
G1 X103.041 Y73.029 E56.44191
G1 X169.916 Y139.905 E58.29055
M204 S1000
G1 X170.342 Y140.331 F9000.000
M204 S500
G1 X173.171 Y143.159 E58.36873 F1800.000
G1 X173.171 Y143.776 E58.38079
G1 X170.342 Y140.948 E58.45897
G1 X170.342 Y141.565 E58.47103
G1 X173.171 Y144.393 E58.54921
G1 X173.171 Y145.010 E58.56127
G1 X170.342 Y142.182 E58.63945
G1 X170.342 Y142.799 E58.65151
G1 X173.171 Y145.627 E58.72969
G1 X173.171 Y146.244 E58.74175
G1 X170.342 Y143.416 E58.81993
G1 X170.342 Y144.033 E58.83199
G1 X173.171 Y146.861 E58.91017
G1 X173.171 Y147.478 E58.92223
G1 X170.342 Y144.650 E59.00041
G1 X170.342 Y145.267 E59.01247
G1 X173.171 Y148.095 E59.09065
G1 X173.171 Y148.713 E59.10271
G1 X170.342 Y145.884 E59.18089
G1 X170.342 Y146.501 E59.19295
G1 X172.846 Y149.005 E59.26215
G1 X172.229 Y149.005 E59.27421
G1 X170.342 Y147.118 E59.32635
G1 X170.342 Y147.736 E59.33841
G1 X171.611 Y149.005 E59.37349
G1 X170.994 Y149.005 E59.38555
G1 X170.342 Y148.353 E59.40357
M204 S1000
G1 E56.40357 F3600.00000
G92 E0
G1 Z0.550 F9000.000
G1 X169.299 Y139.905 F9000.000
G1 Z0.300 F9000.000
G1 E2.95000 F3600.00000
M204 S500
G1 X102.424 Y73.029 E4.79864 F1800.000
G1 X101.807 Y73.029 E4.81070
G1 X168.682 Y139.905 E6.65934
G1 X168.065 Y139.905 E6.67140
G1 X101.190 Y73.029 E8.52004
G1 X100.573 Y73.029 E8.53210
G1 X167.448 Y139.905 E10.38074
G1 X166.831 Y139.905 E10.39280
G1 X99.956 Y73.029 E12.24143
G1 X99.339 Y73.029 E12.25350
G1 X166.214 Y139.905 E14.10213
G1 X165.597 Y139.905 E14.11420
G1 X98.722 Y73.029 E15.96283
G1 X98.105 Y73.029 E15.97489
G1 X164.980 Y139.905 E17.82353
G1 X164.363 Y139.905 E17.83559
G1 X97.488 Y73.029 E19.68423
G1 X96.871 Y73.029 E19.69629
G1 X163.746 Y139.905 E21.54493
G1 X163.129 Y139.905 E21.55699
G1 X96.253 Y73.029 E23.40563
G1 X95.636 Y73.029 E23.41769
G1 X162.511 Y139.905 E25.26633
G1 X161.894 Y139.905 E25.27839
G1 X95.019 Y73.029 E27.12703
G1 X94.402 Y73.029 E27.13909
G1 X161.277 Y139.905 E28.98773
G1 X160.756 Y140.000 E28.99810
G1 X93.785 Y73.029 E30.84937
G1 X93.168 Y73.029 E30.86143
G1 X160.756 Y140.617 E32.72975
G1 X160.756 Y141.234 E32.74181
G1 X92.551 Y73.029 E34.62720
G1 X91.934 Y73.029 E34.63926
G1 X160.756 Y141.851 E36.54170
G1 X160.756 Y142.468 E36.55376
G1 X91.317 Y73.029 E38.47326
G1 X90.700 Y73.029 E38.48532
G1 X160.756 Y143.085 E40.42188
G1 X160.756 Y143.702 E40.43394
G1 X90.083 Y73.029 E42.38755
G1 X89.466 Y73.029 E42.39961
G1 X160.756 Y144.319 E44.37028
G1 X160.756 Y144.936 E44.38234
G1 X88.849 Y73.029 E46.37007
G1 X88.232 Y73.029 E46.38213
G1 X160.756 Y145.553 E48.38692
G1 X160.756 Y146.170 E48.39898
G1 X87.615 Y73.029 E50.42082
G1 X86.998 Y73.029 E50.43288
G1 X160.756 Y146.787 E52.47178
G1 X160.756 Y147.404 E52.48384
G1 X86.381 Y73.029 E54.53980
G1 X85.842 Y73.108 E54.55043
G1 X160.756 Y148.021 E56.62127
G1 X160.756 Y148.638 E56.63333
G1 X85.842 Y73.725 E58.70416
G1 X85.842 Y74.342 E58.71622
G1 X160.505 Y149.005 E60.78012
G1 X159.887 Y149.005 E60.79218
G1 X85.842 Y74.960 E62.83902
G1 X85.842 Y75.577 E62.85108
G1 X159.270 Y149.005 E64.88086
G1 X158.653 Y149.005 E64.89292
G1 X85.842 Y76.194 E66.90564
G1 X85.842 Y76.811 E66.91770
G1 X158.036 Y149.005 E68.91337
G1 X157.419 Y149.005 E68.92543
G1 X85.842 Y77.428 E70.90404
G1 X85.842 Y78.045 E70.91610
G1 X156.802 Y149.005 E72.87765
G1 X156.185 Y149.005 E72.88972
G1 X85.842 Y78.662 E74.83421
G1 X85.842 Y79.279 E74.84627
G1 X155.568 Y149.005 E76.77371
G1 X154.951 Y149.005 E76.78577
G1 X85.842 Y79.896 E78.69615
G1 X85.842 Y80.513 E78.70821
G1 X154.334 Y149.005 E80.60153
G1 X153.717 Y149.005 E80.61360
G1 X85.842 Y81.130 E82.48986
G1 X85.842 Y81.747 E82.50192
G1 X153.100 Y149.005 E84.36113
G1 X152.483 Y149.005 E84.37319
G1 X85.608 Y82.129 E86.22183
G1 X84.991 Y82.129 E86.23389
